(generated by trelelel)

G21 G90 G40

(follow path 1)
G0 Z0
G17
M3
G0 X5.0421412 Y6.1241242
G1 Z-0.2 F50
G1 X5.0421412 Y6.1241242
G1 X5.0421412 Y6.1241242
G1 X5.0421412 Y6.1241242
G1 X5.0421412 Y6.1241242
G0 Z0
G1 Z-0.2 F50
G1 X5.0421412 Y6.1241242
G1 X5.0421412 Y6.1241242
G1 X5.0421412 Y6.1241242
G1 X5.0421412 Y6.1241242
G0 Z0
G1 Z-0.2 F50
G1 X5.0421412 Y6.1241242
G1 X5.0421412 Y6.1241242
G1 X5.0421412 Y6.1241242
G1 X5.0421412 Y6.1241242
G0 Z0
M5
M30