(Generated by PartKam Version 0.05)

G21 G90 G40

(follow path 1)
G0 Z0
T0 M6
G17
M3
G0 X4.85482233502538 Y10.17766497461929
G1 Z-0.2 F50
G1 X6.104060913705584 Y7.34263959390863 F50
G1 X9.185279187817258 Y7.677664974619289
G1 X7.355329949238579 Y5.177664974619289
G1 X9.185279187817258 Y2.6776649746192893
G1 X6.104060913705584 Y3.0126903553299496
G1 X4.855329949238579 Y0.17766497461928935
G1 X3.604060913705584 Y3.0126903553299496
G1 X0.5253807106598986 Y2.6776649746192893
G1 X2.3553299492385786 Y5.177664974619289
G1 X0.5253807106598986 Y7.677664974619289
G1 X3.604060913705584 Y7.34263959390863
G1 X4.855329949238579 Y10.17766497461929
G0 Z0
G0 X4.85482233502538 Y10.17766497461929
G1 Z-0.4 F50
G1 X6.104060913705584 Y7.34263959390863 F50
G1 X9.185279187817258 Y7.677664974619289
G1 X7.355329949238579 Y5.177664974619289
G1 X9.185279187817258 Y2.6776649746192893
G1 X6.104060913705584 Y3.0126903553299496
G1 X4.855329949238579 Y0.17766497461928935
G1 X3.604060913705584 Y3.0126903553299496
G1 X0.5253807106598986 Y2.6776649746192893
G1 X2.3553299492385786 Y5.177664974619289
G1 X0.5253807106598986 Y7.677664974619289
G1 X3.604060913705584 Y7.34263959390863
G1 X4.855329949238579 Y10.17766497461929
G0 Z0
G0 X4.85482233502538 Y10.17766497461929
G1 Z-0.6 F50
G1 X6.104060913705584 Y7.34263959390863 F50
G1 X9.185279187817258 Y7.677664974619289
G1 X7.355329949238579 Y5.177664974619289
G1 X9.185279187817258 Y2.6776649746192893
G1 X6.104060913705584 Y3.0126903553299496
G1 X4.855329949238579 Y0.17766497461928935
G1 X3.604060913705584 Y3.0126903553299496
G1 X0.5253807106598986 Y2.6776649746192893
G1 X2.3553299492385786 Y5.177664974619289
G1 X0.5253807106598986 Y7.677664974619289
G1 X3.604060913705584 Y7.34263959390863
G1 X4.855329949238579 Y10.17766497461929
G0 Z0
G0 X4.85482233502538 Y10.17766497461929
G1 Z-0.8 F50
G1 X6.104060913705584 Y7.34263959390863 F50
G1 X9.185279187817258 Y7.677664974619289
G1 X7.355329949238579 Y5.177664974619289
G1 X9.185279187817258 Y2.6776649746192893
G1 X6.104060913705584 Y3.0126903553299496
G1 X4.855329949238579 Y0.17766497461928935
G1 X3.604060913705584 Y3.0126903553299496
G1 X0.5253807106598986 Y2.6776649746192893
G1 X2.3553299492385786 Y5.177664974619289
G1 X0.5253807106598986 Y7.677664974619289
G1 X3.604060913705584 Y7.34263959390863
G1 X4.855329949238579 Y10.17766497461929
G0 Z0
G0 X4.85482233502538 Y10.17766497461929
G1 Z-1 F50
G1 X6.104060913705584 Y7.34263959390863 F50
G1 X9.185279187817258 Y7.677664974619289
G1 X7.355329949238579 Y5.177664974619289
G1 X9.185279187817258 Y2.6776649746192893
G1 X6.104060913705584 Y3.0126903553299496
G1 X4.855329949238579 Y0.17766497461928935
G1 X3.604060913705584 Y3.0126903553299496
G1 X0.5253807106598986 Y2.6776649746192893
G1 X2.3553299492385786 Y5.177664974619289
G1 X0.5253807106598986 Y7.677664974619289
G1 X3.604060913705584 Y7.34263959390863
G1 X4.855329949238579 Y10.17766497461929
G0 Z0
G0 X4.85482233502538 Y10.17766497461929
G1 Z-1.2 F50
G1 X6.104060913705584 Y7.34263959390863 F50
G1 X9.185279187817258 Y7.677664974619289
G1 X7.355329949238579 Y5.177664974619289
G1 X9.185279187817258 Y2.6776649746192893
G1 X6.104060913705584 Y3.0126903553299496
G1 X4.855329949238579 Y0.17766497461928935
G1 X3.604060913705584 Y3.0126903553299496
G1 X0.5253807106598986 Y2.6776649746192893
G1 X2.3553299492385786 Y5.177664974619289
G1 X0.5253807106598986 Y7.677664974619289
G1 X3.604060913705584 Y7.34263959390863
G1 X4.855329949238579 Y10.17766497461929
G0 Z0
G0 X4.85482233502538 Y10.17766497461929
G1 Z-1.4 F50
G1 X6.104060913705584 Y7.34263959390863 F50
G1 X9.185279187817258 Y7.677664974619289
G1 X7.355329949238579 Y5.177664974619289
G1 X9.185279187817258 Y2.6776649746192893
G1 X6.104060913705584 Y3.0126903553299496
G1 X4.855329949238579 Y0.17766497461928935
G1 X3.604060913705584 Y3.0126903553299496
G1 X0.5253807106598986 Y2.6776649746192893
G1 X2.3553299492385786 Y5.177664974619289
G1 X0.5253807106598986 Y7.677664974619289
G1 X3.604060913705584 Y7.34263959390863
G1 X4.855329949238579 Y10.17766497461929
G0 Z0
G0 X4.85482233502538 Y10.17766497461929
G1 Z-1.6 F50
G1 X6.104060913705584 Y7.34263959390863 F50
G1 X9.185279187817258 Y7.677664974619289
G1 X7.355329949238579 Y5.177664974619289
G1 X9.185279187817258 Y2.6776649746192893
G1 X6.104060913705584 Y3.0126903553299496
G1 X4.855329949238579 Y0.17766497461928935
G1 X3.604060913705584 Y3.0126903553299496
G1 X0.5253807106598986 Y2.6776649746192893
G1 X2.3553299492385786 Y5.177664974619289
G1 X0.5253807106598986 Y7.677664974619289
G1 X3.604060913705584 Y7.34263959390863
G1 X4.855329949238579 Y10.17766497461929
G0 Z0
G0 X4.85482233502538 Y10.17766497461929
G1 Z-1.8 F50
G1 X6.104060913705584 Y7.34263959390863 F50
G1 X9.185279187817258 Y7.677664974619289
G1 X7.355329949238579 Y5.177664974619289
G1 X9.185279187817258 Y2.6776649746192893
G1 X6.104060913705584 Y3.0126903553299496
G1 X4.855329949238579 Y0.17766497461928935
G1 X3.604060913705584 Y3.0126903553299496
G1 X0.5253807106598986 Y2.6776649746192893
G1 X2.3553299492385786 Y5.177664974619289
G1 X0.5253807106598986 Y7.677664974619289
G1 X3.604060913705584 Y7.34263959390863
G1 X4.855329949238579 Y10.17766497461929
G0 Z0
G0 X4.85482233502538 Y10.17766497461929
G1 Z-2 F50
G1 X6.104060913705584 Y7.34263959390863 F50
G1 X9.185279187817258 Y7.677664974619289
G1 X7.355329949238579 Y5.177664974619289
G1 X9.185279187817258 Y2.6776649746192893
G1 X6.104060913705584 Y3.0126903553299496
G1 X4.855329949238579 Y0.17766497461928935
G1 X3.604060913705584 Y3.0126903553299496
G1 X0.5253807106598986 Y2.6776649746192893
G1 X2.3553299492385786 Y5.177664974619289
G1 X0.5253807106598986 Y7.677664974619289
G1 X3.604060913705584 Y7.34263959390863
G1 X4.855329949238579 Y10.17766497461929
G0 Z0
G0 X4.85482233502538 Y10.17766497461929
G1 Z-2.2 F50
G1 X6.104060913705584 Y7.34263959390863 F50
G1 X9.185279187817258 Y7.677664974619289
G1 X7.355329949238579 Y5.177664974619289
G1 X9.185279187817258 Y2.6776649746192893
G1 X6.104060913705584 Y3.0126903553299496
G1 X4.855329949238579 Y0.17766497461928935
G1 X3.604060913705584 Y3.0126903553299496
G1 X0.5253807106598986 Y2.6776649746192893
G1 X2.3553299492385786 Y5.177664974619289
G1 X0.5253807106598986 Y7.677664974619289
G1 X3.604060913705584 Y7.34263959390863
G1 X4.855329949238579 Y10.17766497461929
G0 Z0
G0 X4.85482233502538 Y10.17766497461929
G1 Z-2.4 F50
G1 X6.104060913705584 Y7.34263959390863 F50
G1 X9.185279187817258 Y7.677664974619289
G1 X7.355329949238579 Y5.177664974619289
G1 X9.185279187817258 Y2.6776649746192893
G1 X6.104060913705584 Y3.0126903553299496
G1 X4.855329949238579 Y0.17766497461928935
G1 X3.604060913705584 Y3.0126903553299496
G1 X0.5253807106598986 Y2.6776649746192893
G1 X2.3553299492385786 Y5.177664974619289
G1 X0.5253807106598986 Y7.677664974619289
G1 X3.604060913705584 Y7.34263959390863
G1 X4.855329949238579 Y10.17766497461929
G0 Z0
G0 X4.85482233502538 Y10.17766497461929
G1 Z-2.6 F50
G1 X6.104060913705584 Y7.34263959390863 F50
G1 X9.185279187817258 Y7.677664974619289
G1 X7.355329949238579 Y5.177664974619289
G1 X9.185279187817258 Y2.6776649746192893
G1 X6.104060913705584 Y3.0126903553299496
G1 X4.855329949238579 Y0.17766497461928935
G1 X3.604060913705584 Y3.0126903553299496
G1 X0.5253807106598986 Y2.6776649746192893
G1 X2.3553299492385786 Y5.177664974619289
G1 X0.5253807106598986 Y7.677664974619289
G1 X3.604060913705584 Y7.34263959390863
G1 X4.855329949238579 Y10.17766497461929
G0 Z0
G0 X4.85482233502538 Y10.17766497461929
G1 Z-2.8 F50
G1 X6.104060913705584 Y7.34263959390863 F50
G1 X9.185279187817258 Y7.677664974619289
G1 X7.355329949238579 Y5.177664974619289
G1 X9.185279187817258 Y2.6776649746192893
G1 X6.104060913705584 Y3.0126903553299496
G1 X4.855329949238579 Y0.17766497461928935
G1 X3.604060913705584 Y3.0126903553299496
G1 X0.5253807106598986 Y2.6776649746192893
G1 X2.3553299492385786 Y5.177664974619289
G1 X0.5253807106598986 Y7.677664974619289
G1 X3.604060913705584 Y7.34263959390863
G1 X4.855329949238579 Y10.17766497461929
G0 Z0
G0 X4.85482233502538 Y10.17766497461929
G1 Z-3 F50
G1 X6.104060913705584 Y7.34263959390863 F50
G1 X9.185279187817258 Y7.677664974619289
G1 X7.355329949238579 Y5.177664974619289
G1 X9.185279187817258 Y2.6776649746192893
G1 X6.104060913705584 Y3.0126903553299496
G1 X4.855329949238579 Y0.17766497461928935
G1 X3.604060913705584 Y3.0126903553299496
G1 X0.5253807106598986 Y2.6776649746192893
G1 X2.3553299492385786 Y5.177664974619289
G1 X0.5253807106598986 Y7.677664974619289
G1 X3.604060913705584 Y7.34263959390863
G1 X4.855329949238579 Y10.17766497461929
G0 Z0
G0 X4.85482233502538 Y10.17766497461929
G1 Z-3.2 F50
G1 X6.104060913705584 Y7.34263959390863 F50
G1 X9.185279187817258 Y7.677664974619289
G1 X7.355329949238579 Y5.177664974619289
G1 X9.185279187817258 Y2.6776649746192893
G1 X6.104060913705584 Y3.0126903553299496
G1 X4.855329949238579 Y0.17766497461928935
G1 X3.604060913705584 Y3.0126903553299496
G1 X0.5253807106598986 Y2.6776649746192893
G1 X2.3553299492385786 Y5.177664974619289
G1 X0.5253807106598986 Y7.677664974619289
G1 X3.604060913705584 Y7.34263959390863
G1 X4.855329949238579 Y10.17766497461929
G0 Z0
G0 X4.85482233502538 Y10.17766497461929
G1 Z-3.4 F50
G1 X6.104060913705584 Y7.34263959390863 F50
G1 X9.185279187817258 Y7.677664974619289
G1 X7.355329949238579 Y5.177664974619289
G1 X9.185279187817258 Y2.6776649746192893
G1 X6.104060913705584 Y3.0126903553299496
G1 X4.855329949238579 Y0.17766497461928935
G1 X3.604060913705584 Y3.0126903553299496
G1 X0.5253807106598986 Y2.6776649746192893
G1 X2.3553299492385786 Y5.177664974619289
G1 X0.5253807106598986 Y7.677664974619289
G1 X3.604060913705584 Y7.34263959390863
G1 X4.855329949238579 Y10.17766497461929
G0 Z0
G0 X4.85482233502538 Y10.17766497461929
G1 Z-3.6 F50
G1 X6.104060913705584 Y7.34263959390863 F50
G1 X9.185279187817258 Y7.677664974619289
G1 X7.355329949238579 Y5.177664974619289
G1 X9.185279187817258 Y2.6776649746192893
G1 X6.104060913705584 Y3.0126903553299496
G1 X4.855329949238579 Y0.17766497461928935
G1 X3.604060913705584 Y3.0126903553299496
G1 X0.5253807106598986 Y2.6776649746192893
G1 X2.3553299492385786 Y5.177664974619289
G1 X0.5253807106598986 Y7.677664974619289
G1 X3.604060913705584 Y7.34263959390863
G1 X4.855329949238579 Y10.17766497461929
G0 Z0
G0 X4.85482233502538 Y10.17766497461929
G1 Z-3.8 F50
G1 X6.104060913705584 Y7.34263959390863 F50
G1 X9.185279187817258 Y7.677664974619289
G1 X7.355329949238579 Y5.177664974619289
G1 X9.185279187817258 Y2.6776649746192893
G1 X6.104060913705584 Y3.0126903553299496
G1 X4.855329949238579 Y0.17766497461928935
G1 X3.604060913705584 Y3.0126903553299496
G1 X0.5253807106598986 Y2.6776649746192893
G1 X2.3553299492385786 Y5.177664974619289
G1 X0.5253807106598986 Y7.677664974619289
G1 X3.604060913705584 Y7.34263959390863
G1 X4.855329949238579 Y10.17766497461929
G0 Z0
G0 X4.85482233502538 Y10.17766497461929
G1 Z-4 F50
G1 X6.104060913705584 Y7.34263959390863 F50
G1 X9.185279187817258 Y7.677664974619289
G1 X7.355329949238579 Y5.177664974619289
G1 X9.185279187817258 Y2.6776649746192893
G1 X6.104060913705584 Y3.0126903553299496
G1 X4.855329949238579 Y0.17766497461928935
G1 X3.604060913705584 Y3.0126903553299496
G1 X0.5253807106598986 Y2.6776649746192893
G1 X2.3553299492385786 Y5.177664974619289
G1 X0.5253807106598986 Y7.677664974619289
G1 X3.604060913705584 Y7.34263959390863
G1 X4.855329949238579 Y10.17766497461929
G0 Z0
M5
M30
